Adwaita++-Light/panel/16/smartphoneattention.svg

<svg height="16" width="16" xmlns="http://www.w3.org/2000/svg">
  <path d="m4 1c-1 0-1 1-1 1v12s0 1 1 1h7v-3h-6v-8h6v2h2v-4s0-1-1-1zm3.5 12h1s.5 0 .5.5-.5.5-.5.5h-1s-.5 0-.5-.5.5-.5.5-.5z" fill="#444"/>
  <path d="m12 7v4l.25 2h1.5l.25-2v-4zm0 7v2h2v-2z" fill="#4285f4"/>
</svg>

<svg xmlns="http://www.w3.org/2000/svg" width="16" height="16" version="1.1">
 <defs>
  <style id="current-color-scheme" type="text/css">
   .ColorScheme-Text { color:#444444; } .ColorScheme-Highlight { color:#4285f4; }
  </style>
 </defs>
 <path style="fill:currentColor" class="ColorScheme-Text" d="M 4,1 C 3,1 3,2 3,2 V 14 C 3,14 3,15 4,15 H 11 V 12 H 5 V 4 H 11 V 6 H 13 V 2 C 13,2 13,1 12,1 Z M 7.5,13 H 8.5 C 8.5,13 9,13 9,13.5 9,14 8.5,14 8.5,14 H 7.5 C 7.5,14 7,14 7,13.5 7,13 7.5,13 7.5,13 Z"/>
 <path style="fill:currentColor" class="ColorScheme-Highlight" d="M 12,7 V 11 L 12.25,13 H 13.75 L 14,11 V 7 Z M 12,14 V 16 H 14 V 14 Z"/>
</svg>
